X:240
T: WENN SICH DIE HAHNEN KRAEHEN
N: E0822A
O: Europa, Mitteleuropa, Deutschland, Bergisches Land
R: Tage - Lied, Kilt - Lied
M: 2/4
L: 1/8
K: D
D | DE=FG | A2A
A | _BAGG | A2z
A | G=FED | C2A
G | =FEDC | D2z

@@@ Tune index: 4553
